X:1
T:Castillo, 87.87 D
T:Castillo, 87.87 D
T:Owen Foulkes Pugh
T:Public Domain Courtesy of the Cyber Hymnal™
C:Owen Foulkes Pugh
Z:Public Domain
Z:Courtesy of the Cyber Hymnal™
%%score ( 1 2 ) ( 3 4 )
L:1/8
Q:1/4=100
M:4/4
K:G
V:1 treble 
V:2 treble 
V:3 bass 
V:4 bass 
V:1
 [GB]3 [GB] [G^A][GB][Gc][GB] | [GB]4 [FA]4 | [FA]3 [FA] [FA][FA]G[GB] | [FA]6 z2 | %4
 [GB]3 [GB] [G^A][GB][Gc][GB] | [Gd]4 [Gc]4 | [GB]3 [GB] [GB][Gc][GB][FA] | G6 z2 | %8
 [Gd]3 [GB] [GB][GB][GB][GB] | [Fd]2 [Ac]2 F2 F2 | [Fc]3 [FA] [FA][FA][Gd][Fc] | %11
 (B4 !fermata!d2) z2 | [Gd]3 [Gd] [G^c][Gd][Ge][GB] | d4 z z c4 z z | [GB]3 [GB] [GB][Gc][GB][FA] | %15
 G6 z2 |] %16
V:2
 x8 | x8 | x6 G x | x8 | x8 | x8 | x8 | G6 x2 | x8 | x8 | x8 | G6 x2 | x8 | GGGG x8 | x8 | G6 x2 |] %16
V:3
 [G,D]3 [G,D] [G,^C][G,D][G,E][G,D] | [D,D]4 [D,D]4 | [D,D]3 [D,D] [D,D][D,D][G,B,][G,D] | %3
 [D,D]6 z2 | [G,D]3 [G,D] [G,^C][G,D][G,E][G,D] | [G,B,]4 [C,E]4 | %6
 [D,D]3 [D,D] [D,D][D,E][D,D][D,C] | [G,B,]6 z2 | [G,B,]3 [G,D] [G,D][G,D][G,D][G,D] | %9
 [D,D]2 [F,D]2 [A,D]2 [D,D]2 | [D,D]3 [F,D] [A,D][CD][B,D][A,D] | (D4 !fermata!B,2) z2 | %12
 [G,B,]3 [G,B,] [G,^A,][G,B,][G,C][G,D] | [D,B,] z [B,,D] z [C,E] z [C,E] z x4 | %14
 [D,D]3 [D,D] [D,D][D,E][D,D][D,C] | [G,,G,B,]6 z2 |] %16
V:4
 x8 | x8 | x8 | x8 | x8 | x8 | x8 | x8 | x8 | x8 | x8 | G,6 x2 | x8 | x12 | x8 | x8 |] %16

